Catalina-dark/actions/16/autocorrection.svg

<?xml version="1.0" encoding="UTF-8" standalone="no"?>
<svg
   xmlns:dc="http://purl.org/dc/elements/1.1/"
   xmlns:cc="http://creativecommons.org/ns#"
   xmlns:rdf="http://www.w3.org/1999/02/22-rdf-syntax-ns#"
   xmlns:svg="http://www.w3.org/2000/svg"
   xmlns="http://www.w3.org/2000/svg"
   xmlns:sodipodi="http://sodipodi.sourceforge.net/DTD/sodipodi-0.dtd"
   xmlns:inkscape="http://www.inkscape.org/namespaces/inkscape"
   width="16"
   height="16"
   viewBox="0 0 16 16"
   version="1.1"
   id="svg7"
   sodipodi:docname="autocorrection.svg"
   inkscape:version="0.92.4 5da689c313, 2019-01-14">
  <metadata
     id="metadata11">
    <rdf:RDF>
      <cc:Work
         rdf:about="">
        <dc:format>image/svg+xml</dc:format>
        <dc:type
           rdf:resource="http://purl.org/dc/dcmitype/StillImage" />
      </cc:Work>
    </rdf:RDF>
  </metadata>
  <sodipodi:namedview
     pagecolor="#ffffff"
     bordercolor="#666666"
     borderopacity="1"
     objecttolerance="10"
     gridtolerance="10"
     guidetolerance="10"
     inkscape:pageopacity="0"
     inkscape:pageshadow="2"
     inkscape:window-width="640"
     inkscape:window-height="480"
     id="namedview9"
     showgrid="false"
     inkscape:zoom="14.75"
     inkscape:cx="6.8135593"
     inkscape:cy="8"
     inkscape:window-x="0"
     inkscape:window-y="26"
     inkscape:window-maximized="0"
     inkscape:current-layer="svg7" />
  <defs
     id="defs3">
    <style
       id="current-color-scheme"
       type="text/css">
   .ColorScheme-Text { color:#5c616c; } .ColorScheme-Highlight { color:#5294e2; }
  </style>
  </defs>
  <path
     style="fill:#f1f6f8;fill-opacity:0.8509804"
     class="ColorScheme-Text"
     d="M 11.646484 1 L 7.5625 5.0839844 L 6.9785156 5.6660156 L 4.6464844 8 L 2.8964844 9.75 L 2.3125 10.333984 L 1 11.646484 L 4.3535156 15 L 5.6660156 13.6875 L 6.25 13.103516 L 10.333984 9.0214844 L 10.916016 8.4375 L 15 4.3535156 L 11.646484 1 z M 3.5 2 L 2.96875 2.96875 L 2 3.5 L 2.96875 4.03125 L 3.5 5 L 4.03125 4.03125 L 5 3.5 L 4.03125 2.96875 L 3.5 2 z M 11.646484 2.6777344 L 13.322266 4.3535156 L 10.078125 7.5996094 L 8.4003906 5.921875 L 11.646484 2.6777344 z"
     id="path5" />
</svg>

<svg width="16" height="16" version="1.1" viewBox="0 0 16 16" xmlns="http://www.w3.org/2000/svg">
<defs>
<style id="current-color-scheme" type="text/css">.ColorScheme-Text { color:#5c616c; } .ColorScheme-Highlight { color:#5294e2; }</style>
</defs>
<path class="ColorScheme-Text" d="m11.646 1-4.084 4.084-0.58398 0.58203-2.332 2.334-3.6465 3.6465 3.3535 3.3535 1.8965-1.8965 4.084-4.082 0.58203-0.58398 4.084-4.084-3.3535-3.3535zm-8.1465 1-0.53125 0.96875-0.96875 0.53125 0.96875 0.53125 0.53125 0.96875 0.53125-0.96875 0.96875-0.53125-0.96875-0.53125-0.53125-0.96875zm8.1465 0.67773 1.6758 1.6758-3.2441 3.2461-1.6777-1.6777 3.2461-3.2441z" fill="#dedede" fill-opacity=".85098"/>
</svg>
